assets/img/contactameImg/linkedin.svg

<svg width="57" height="56" viewBox="0 0 57 56" fill="none" xmlns="http://www.w3.org/2000/svg">
<g clip-path="url(#clip0_1387_6615)">
<path d="M39.7269 18.9083C36.9736 16.2624 33.4328 15.9769 30.4864 18.1634C29.3281 19.0228 28.2143 20.2292 27.0813 21.8507C25.6385 23.9173 25.2662 26.4367 24.938 28.6589C24.3567 32.5904 24.802 36.4943 25.2323 40.2682C25.2961 40.8259 25.4426 42.1086 26.7127 42.1084C26.7533 42.1084 26.7954 42.1072 26.8386 42.1044C28.1001 42.0247 28.1047 40.9602 28.1078 40.2555C28.1078 40.1878 28.1078 40.1216 28.1096 40.0573C28.1255 39.2123 28.1047 38.3541 28.0844 37.5244C28.0557 36.339 28.0255 35.1132 28.1045 33.9195C28.251 31.4154 28.5488 28.9221 28.9964 26.4528C29.3856 24.3875 30.552 22.5434 32.2618 21.2907C34.079 19.9272 35.7011 20.0882 37.2229 21.7818C38.3748 23.0534 39.1429 24.6177 39.4403 26.2977C39.7776 28.2499 40.01 30.2562 40.2345 32.1971C40.3221 32.9534 40.4097 33.7102 40.5034 34.4654L40.4632 34.4707C40.4083 34.4781 40.3576 34.5037 40.3198 34.5435C40.2819 34.5834 40.259 34.6348 40.2553 34.6892C40.2315 35.0316 40.207 35.3741 40.1817 35.7165C40.1217 36.5409 40.0595 37.3935 40.0159 38.234L40.0105 38.3359C39.9593 38.9449 39.9656 39.5573 40.0287 40.1652C40.1757 41.2407 40.9428 42.0139 41.9377 42.089C42.8955 42.1611 43.7858 41.5212 44.1523 40.497C44.2355 40.2544 44.2871 40.0023 44.3063 39.7467C44.6714 35.6508 44.8796 30.2603 43.234 24.8866C42.4729 22.4008 41.3255 20.4447 39.7269 18.9083Z" fill="black"/>
<path d="M16.9138 39.7559C16.929 40.4908 17.1145 41.2126 17.4562 41.8662C17.6707 42.2748 18.3834 42.487 18.8238 42.487C18.838 42.487 18.8518 42.487 18.8656 42.487C19.2791 42.4739 19.79 41.983 19.9026 41.6053C20.0756 40.9794 20.1458 40.3305 20.1105 39.6827C19.9703 35.8917 19.8089 32.0381 19.6533 28.3114L19.3433 20.8581C19.32 20.2905 19.2758 19.2336 17.973 19.1276C17.9302 19.1246 17.8873 19.1325 17.8485 19.1506C16.8477 19.6293 16.8793 20.5297 16.9047 21.2533C16.9092 21.377 16.9136 21.5 16.9131 21.6201C16.8949 26.5888 16.8776 33.1406 16.9138 39.7559Z" fill="black"/>
<path d="M18.0427 11.7847C17.8845 11.6646 17.721 11.5406 17.5774 11.4116C17.544 11.3814 17.5026 11.3612 17.4581 11.3533C17.4135 11.3454 17.3676 11.3502 17.3257 11.3671C15.7433 11.9988 15.6424 13.0858 15.8363 13.8864C15.9316 14.2065 16.0949 14.5031 16.3152 14.7563C16.5354 15.0095 16.8078 15.2137 17.1141 15.3553C17.2052 15.388 17.3017 15.4036 17.3986 15.4014C17.9011 15.4014 18.5791 15.0571 18.7991 14.7056C18.9667 14.4175 19.0704 14.0976 19.1036 13.767C19.1368 13.4364 19.0988 13.1027 18.9918 12.7877C18.8196 12.3749 18.4246 12.0753 18.0427 11.7847Z" fill="black"/>
<path d="M55.7768 9.34779C54.9459 2.61626 49.2036 -0.0857884 43.8837 0.225092C40.7265 0.407842 37.5997 0.505312 33.8762 0.595188C30.5027 0.676769 27.0432 0.746889 23.9911 0.80865C19.6115 0.897605 15.0826 0.989756 10.5859 1.11236C5.42318 1.25339 1.26032 4.53414 0.459755 9.09088C0.138312 10.9195 0.128955 12.765 0.148812 14.8144C0.20698 20.7995 0.295751 26.8468 0.382419 32.695L0.391999 33.3283C0.426417 35.681 0.46003 38.0339 0.492892 40.3868C0.498498 40.7832 0.512512 41.1805 0.526996 41.5778L0.528194 41.6096C0.586935 42.5941 0.577032 43.5814 0.498538 44.5645C0.220779 47.19 1.23954 49.9893 3.22403 52.0524C5.42998 54.3456 8.55629 55.5114 12.0295 55.3368C15.8196 55.1432 19.6856 55.1803 23.4242 55.2158L23.6949 55.2183C28.1316 55.2603 32.6435 55.3716 37.0126 55.4799L39.2155 55.534C39.5865 55.5559 39.9546 55.6108 40.3153 55.6986C40.5043 55.7382 40.6938 55.7776 40.8823 55.8097C40.9094 55.8143 40.9367 55.8166 40.9643 55.8166H43.3548C43.3781 55.8166 43.4017 55.8147 43.4249 55.8115C43.9026 55.7424 44.3827 55.6799 44.8611 55.6181L44.8971 55.6135C45.9695 55.4753 47.0789 55.3326 48.1601 55.101C52.8238 54.1015 56.775 49.33 56.7881 44.6818C56.7914 43.5862 56.7953 42.4906 56.7998 41.3951L56.8019 40.8452C56.8252 34.8405 56.8509 28.6312 56.7201 22.5172C56.6243 18.0702 56.3071 13.6393 55.7768 9.34779ZM53.1838 44.3575C53.1983 47.9478 50.0238 51.3091 45.9569 52.0099C42.8409 52.5469 39.6556 52.3644 36.5748 52.1885C35.4313 52.1231 34.2488 52.0553 33.0738 52.0247C31.7396 51.9901 30.3812 51.9221 29.0599 51.856L28.9431 51.8502C28.3745 51.8219 27.8055 51.7936 27.2411 51.7682H27.2149C25.7773 51.7682 24.3394 51.7664 22.9016 51.7629C21.2332 51.7601 19.5388 51.7574 17.8356 51.7574C15.5965 51.7574 13.7557 51.762 12.0422 51.7721H11.9667C9.4517 51.7721 7.37706 51.0361 5.96702 49.6432C4.5009 48.195 3.73584 46.032 3.75523 43.3873C3.80055 37.169 3.77319 30.8737 3.74656 24.7854C3.73161 21.309 3.71619 17.7146 3.71432 14.1631C3.67924 12.1177 4.14822 10.0945 5.08095 8.26742C6.13872 6.26064 8.0281 5.19572 11.0267 4.91618C15.2344 4.52441 18.6297 4.31099 21.7116 4.24485C30.6092 4.05265 37.4567 3.98467 43.9133 4.02408C48.6231 4.05288 51.342 6.23852 52.2297 10.7061C53.2109 15.6585 53.1969 20.7488 53.1819 25.674L53.1807 26.0916C53.1595 33.0778 53.1607 38.882 53.1831 44.3575H53.1838Z" fill="black"/>
</g>
<defs>
<clipPath id="clip0_1387_6615">
<rect width="57" height="56" fill="white"/>
</clipPath>
</defs>
</svg>

<svg xmlns="http://www.w3.org/2000/svg" width="57" height="56" fill="none"><g fill="#000" clip-path="url(#a)"><path d="M39.727 18.908c-2.753-2.646-6.294-2.931-9.24-.745-1.159.86-2.273 2.066-3.406 3.688-1.442 2.066-1.815 4.586-2.143 6.808-.581 3.931-.136 7.835.294 11.61.064.557.21 1.84 1.48 1.84q.061 0 .127-.005c1.261-.08 1.266-1.144 1.269-1.849q0-.1.002-.198a59 59 0 0 0-.026-2.533c-.028-1.185-.058-2.41.02-3.605.147-2.504.445-4.997.892-7.466a8.3 8.3 0 0 1 3.266-5.162c1.817-1.364 3.44-1.203 4.96.49a9.1 9.1 0 0 1 2.218 4.517c.338 1.952.57 3.958.794 5.9q.13 1.133.27 2.267l-.04.006a.24.24 0 0 0-.144.073.24.24 0 0 0-.065.145l-.073 1.028c-.06.824-.123 1.677-.166 2.517l-.005.102a10 10 0 0 0 .018 1.83c.147 1.075.914 1.848 1.909 1.923.957.072 1.848-.568 2.214-1.592q.126-.366.154-.75c.365-4.096.574-9.487-1.072-14.86-.761-2.486-1.909-4.442-3.507-5.979M16.914 39.756c.015.735.2 1.457.542 2.11.215.409.927.621 1.368.621h.042c.413-.013.924-.504 1.037-.882a6 6 0 0 0 .207-1.922c-.14-3.791-.301-7.645-.457-11.372l-.31-7.453c-.023-.567-.067-1.624-1.37-1.73a.25.25 0 0 0-.124.023c-1.001.478-.97 1.379-.944 2.102q.008.187.008.367c-.018 4.969-.035 11.52 0 18.136M18.043 11.785c-.159-.12-.322-.244-.466-.373a.24.24 0 0 0-.251-.045c-1.583.632-1.684 1.719-1.49 2.52a2.385 2.385 0 0 0 1.278 1.469.8.8 0 0 0 .285.045c.502 0 1.18-.344 1.4-.695a2.33 2.33 0 0 0 .193-1.918c-.172-.413-.567-.713-.95-1.003"/><path d="M55.777 9.348C54.946 2.616 49.204-.086 43.884.225c-3.157.183-6.284.28-10.008.37-3.373.082-6.833.152-9.885.214-4.38.089-8.908.18-13.405.303C5.423 1.253 1.26 4.534.46 9.091.138 10.92.129 12.765.149 14.814.207 20.8.296 26.847.382 32.695l.01.633q.051 3.53.1 7.059.01.595.035 1.19l.001.033q.089 1.478-.03 2.955c-.277 2.625.742 5.424 2.726 7.487 2.206 2.294 5.332 3.46 8.805 3.285 3.79-.194 7.657-.157 11.395-.121l.27.002c4.438.042 8.95.154 13.319.262l2.203.054q.557.033 1.1.165.283.062.566.11a1 1 0 0 0 .082.008h2.39a1 1 0 0 0 .07-.005q.72-.103 1.437-.194l.036-.005c1.072-.138 2.182-.28 3.263-.512 4.664-1 8.615-5.771 8.628-10.42l.012-3.286.002-.55c.023-6.004.049-12.214-.082-18.328a131 131 0 0 0-.943-13.17m-2.593 35.01c.014 3.59-3.16 6.951-7.227 7.652-3.116.537-6.301.354-9.382.178-1.144-.065-2.326-.133-3.501-.163-1.334-.035-2.693-.103-4.014-.169l-.117-.006q-.855-.042-1.702-.082h-.026q-2.157 0-4.313-.005a3015 3015 0 0 0-5.066-.006c-2.24 0-4.08.005-5.794.015h-.075c-2.515 0-4.59-.736-6-2.129-1.466-1.448-2.231-3.611-2.212-6.256.046-6.218.018-12.513-.008-18.602-.015-3.476-.03-7.07-.033-10.622a12.5 12.5 0 0 1 1.367-5.896c1.058-2.006 2.947-3.071 5.946-3.35 4.207-.393 7.603-.606 10.685-.672 8.897-.192 15.745-.26 22.201-.22 4.71.028 7.429 2.214 8.317 6.681.98 4.953.967 10.043.952 14.968l-.001.418c-.021 6.986-.02 12.79.002 18.266"/></g><defs><clipPath id="a"><path fill="#fff" d="M0 0h57v56H0z"/></clipPath></defs></svg>
